X:1
T:Peace, 10.10.10.6
T:Peace, 10.10.10.6
T:George Whitefield Chadwick, 1890
T:Public Domain Courtesy of the Cyber Hymnal™
C:George Whitefield Chadwick, 1890
Z:Public Domain
Z:Courtesy of the Cyber Hymnal™
%%score ( 1 2 ) ( 3 4 )
L:1/8
Q:1/4=130
M:4/4
K:Ab
V:1 treble 
V:2 treble 
V:3 bass 
V:4 bass 
V:1
 [CE]4 [CE]2 [CE]2 | [EA]6 [EA]2 | [EG]2 [EA]2 [GB]2 [Gc]2 | [GB]4 A4 | [Ac]4 [Ac]2 [Ac]2 | %5
 [Fd]6 [Ec]2 | [=DB]2 [DF]2 [DG]2 [DA]2 | [DB]8 | [CE]4 [CE]2 [CE]2 | [CA]6 [FA]2 | %10
 [=EG]2 [EB]2 [EA]2 [EG]2 | [=EG]4 F4 | [CE]4 [CE]2 [CE]2 | E4 [DE]4 | [CE]8 |] %15
V:2
 x8 | x8 | x8 | x4 A4 | x8 | x8 | x8 | x8 | x8 | x8 | x8 | x8 | x8 | B,2 C2 x4 | x8 |] %15
V:3
 [A,,A,]4 [A,,A,]2 [A,,A,]2 | [C,A,]6 [C,A,]2 | [E,B,]2 [E,C]2 [E,D]2 [E,E]2 | D4 C4 | %4
 [A,,E]4 [A,,E]2 [A,,E]2 | A,4- A,2 A,2 | [B,,A,]2 [B,,A,]2 [B,,G,]2 [B,,F,]2 | [E,G,]8 | %8
 A,4 A,2 [G,A,]2 | [F,A,]6 [A,,C]2 | [C,B,]2 [C,D]2 [C,C]2 [C,B,]2 | B,4 A,4 | %12
 [E,A,]4 [E,A,]2 [E,A,]2 | [E,A,]4 [E,G,]4 | [A,,A,]8 |] %15
V:4
 x8 | x8 | x8 | A,8 | x8 | x4 A,,4 | x8 | x8 | A,4 A,2 x2 | x8 | x8 | D,8 | x8 | x8 | x8 |] %15

